openmetadata-ui/src/main/resources/ui/src/assets/svg/icon-chevron-down.svg

<svg width="448" height="112" viewBox="0 0 448 112" fill="none" xmlns="http://www.w3.org/2000/svg">
<path d="M212.658 109.793L4.73114 12.8014C3.23202 12.1078 2.04208 11.2826 1.23007 10.3734C0.41806 9.46425 -3.7107e-07 8.48907 -3.28017e-07 7.50414C-2.84965e-07 6.51921 0.41806 5.54403 1.23007 4.63485C2.04208 3.72567 3.23203 2.90049 4.73114 2.2069C6.21802 1.5076 7.98697 0.952557 9.93604 0.573777C11.8851 0.194998 13.9756 -1.89718e-05 16.0871 -1.88795e-05C18.1985 -1.87872e-05 20.2891 0.194998 22.2382 0.573778C24.1872 0.952558 25.9562 1.5076 27.4431 2.2069L224.014 93.976L420.584 2.20692C423.596 0.802005 427.681 0.0127354 431.94 0.0127356C434.049 0.0127357 436.138 0.206502 438.086 0.582982C440.034 0.959462 441.805 1.51128 443.296 2.20692C444.787 2.90256 445.97 3.72841 446.778 4.63731C447.585 5.54621 448 6.52037 448 7.50416C448 9.49101 446.308 11.3965 443.296 12.8014L235.37 109.793C233.883 110.492 232.114 111.047 230.165 111.426C228.216 111.805 226.125 112 224.014 112C221.902 112 219.812 111.805 217.863 111.426C215.914 111.047 214.145 110.492 212.658 109.793Z" fill="#6B7280"/>
</svg>

<svg xmlns="http://www.w3.org/2000/svg" width="448" height="112" fill="none"><path fill="#6B7280" d="M212.658 109.793 4.731 12.801c-1.499-.693-2.689-1.518-3.5-2.428C.417 9.464 0 8.49 0 7.504c0-.985.418-1.96 1.23-2.87.812-.908 2.002-1.734 3.501-2.427C6.218 1.507 7.987.953 9.936.574A32.5 32.5 0 0 1 16.087 0c2.111 0 4.202.195 6.151.574 1.95.379 3.718.934 5.205 1.633l196.571 91.769 196.57-91.77C423.596.803 427.681.014 431.94.014c2.109 0 4.198.194 6.146.57 1.948.376 3.719.928 5.21 1.624 1.491.696 2.674 1.521 3.482 2.43.807.91 1.222 1.883 1.222 2.867 0 1.987-1.692 3.893-4.704 5.297L235.37 109.793c-1.487.699-3.256 1.254-5.205 1.633-1.949.379-4.04.574-6.151.574-2.112 0-4.202-.195-6.151-.574-1.949-.379-3.718-.934-5.205-1.633Z"/></svg>
